X:141
T: AUF DEM GRUENEN RASEN
N: B0631
O: Europa, Mitteleuropa, Deutschland
R: Kinder - Lied, Tier
M: 2/4
L: 1/8
K: G
 | BBdd | c2A2 |
GABc | A2z2 |
ccBB | e2d2 |
dcBA | G2z2

@@@ Tune index: 2359
